X:6
T:Albion's Queen
S:Colin Hume's website,  colinhume.com  - chords can also be printed below the stave.
Q:3/8=110
M:9/8
L:1/8
N:Originally in 9/4.  Same dance as "Edinburgh Castle" which uses the "Trip to the Jubilee" tune.
C:John Young, 1710
%%MIDI ratio 3 1
K:G
P:A
|: "G"g3 "/"B2e "/"dBG | "D"A3 "/"F2B "/"AFD | "G"GBG "D/F#"dfd "Em"gbg | "D"a3 "A7"f2b "D"afd :|
P:B
"Em"geg "Dm"=fdf "C"ece | "G/B"dBd "D/A"cAc "G"BGd | "Em"geg "D/F#"afa "G"bgb | "F#m"afa "Em"geg "Dm"=fdf |
"C"e3 "G"d3 "Am"c2e | "G"dBd "D"cAc "G"BGd | "C"e3 "D"f3 "G"g2c | "Em"BeA "D7"A2G "G"G3 |]

